src/icons/solid/navigation/chevron-down.svg

<svg width="24" height="24" viewBox="0 0 24 24" fill="none" xmlns="http://www.w3.org/2000/svg">
<g clip-path="url(#clip0_4573_395)">
<path d="M1 7.01987C1 6.63484 1.14563 6.23967 1.42719 5.94583C2 5.34801 2.92233 5.34801 3.48544 5.94583L12 14.832L20.5146 5.94583C21.0874 5.34801 22.0097 5.34801 22.5728 5.94583C23.1359 6.54365 23.1456 7.50624 22.5728 8.09392L13.0291 18.0542C12.7573 18.3379 12.3884 18.5 12 18.5C11.6117 18.5 11.2427 18.3379 10.9709 18.0542L1.42719 8.09392C1.14563 7.80008 1 7.40491 1 7.01987Z" fill="#3C3B44"/>
</g>
<defs>
<clipPath id="clip0_4573_395">
<rect width="24" height="24" fill="white"/>
</clipPath>
</defs>
</svg>

<svg xmlns="http://www.w3.org/2000/svg" width="24" height="24" fill="none" viewBox="0 0 24 24"><g clip-path="url(#a)"><path fill="currentColor" d="M1 7.02c0-.385.146-.78.427-1.074a1.405 1.405 0 0 1 2.058 0L12 14.832l8.515-8.886a1.405 1.405 0 0 1 2.058 0c.563.598.573 1.56 0 2.148l-9.544 9.96c-.272.284-.64.446-1.029.446s-.757-.162-1.03-.446l-9.543-9.96A1.56 1.56 0 0 1 1 7.02"/></g><defs><clipPath id="a"><path fill="currentColor" d="M0 0h24v24H0z"/></clipPath></defs></svg>
